X:9214
%9379
T:Le CarÃªme est arrivÃ© - rond de St-Vincent
C:Perroches: Midi Breton 
M:4/4
L:1/8
K:Cmaj
DEFD DCD2|DEFD DCD2|DEFD DCD2:|\
DFEF GFEE|FDDD C2D2|DFEF GFEE|FDDD C2D2
%Warning : No repeat expected, found :|
:|


